!!!COM: Fux, Johann Joseph
!!!OMD: Gradus ad Parnassum Exercise
!!!YEC: CC0 1.0 Universal (Public Domain). Mark Gotham and FourScoreAndMore.org waive all rights to this document.
**kern	**kern	**kern
*part3	*part2	*part1
*staff3	*staff2	*staff1
*I"3	*I"2	*I"1
*I'Pno	*I'Pno	*I'Pno
!!LO:LB:g=z
*clefF4	*clefGv2	*clefG2
*k[]	*k[]	*k[]
!!LO:TX:omd:t=
*M4/4	*M4/4	*M4/4
=23	=23	=23
!	!	!LO:TX:a:t=Fig. 105; Species&colon; 1; Modal final&colon; d; Cantus firmus&colon; 3
1D	1d	1f
=24	=24	=24
1F	1c	1a
=25	=25	=25
1E	1c	1g
=26	=26	=26
1D	1d	1f
=27	=27	=27
1G	1B-X	1e
=28	=28	=28
1F	1A	1f
=29	=29	=29
1A	1c	1e
=30	=30	=30
1G	1B-X	1g
=31	=31	=31
1F	1A	1d
=32	=32	=32
1E	1G	1c#X
=33	=33	=33
1D	1A	1d
==	==	==
*-	*-	*-
!!!software: music21 v.9.7.1
!!!software: music21 v.9.7.1
!!!software: MuseScore 3.4.2
!!!RDF**kern: > = above
!!!RDF**kern: < = below
